X: 189
T:Maggie's Favourite
% Nottingham Music Database
P:AABB
S:Kevin Briggs, via EF
M:6/8
K:G
P:A
|:g|"G"dBG GBd|"C"E2E E2c|"D7"AFD DEF|"G"G2G G2g|
"G"dBG Bcd|"C"E2E "Am"E2c|"D7"AFD DEF|"G"G3 -G2:|
P:B
|:g/2a/2|"G"bgb "D"afd|"C"efg gfe|"G"dBg dBG|"D7"AFD D2g/2a/2|
"G"bgb "D"afd|"C"efg gfe|"D"faf "A7"ge^c|"D7"d2d "G7"de=f|
"C"ece "G"dBd|"C"cac "G"BgB|"C"Ace "G"dBG|"Am"FAF "D7"DEF|
"G"GAB "C"EFG|"Am"ABc "D7"def|"G"gdB "D7"cAF|"G"G2G G2:|<end>
<start>
